FINK
CUT[GESTERN ABEND GING ICH AUS]
REG[Europa, Mitteleuropa, Deutschland]
KEY[F0351A 08  G 2/4]
MEL[  -5111  -722_
    421-7  211_
    -5111  -722_
    421-7  211_
    5331  1-6-6_
    4321  -7-6-5_
    -5111  -722_
    421-7  211_
    5331  1-6-6_
    4321  -7-6-5_
    -5111  -722_
    421-7  211_ //] >>
FCT[Jugend - Lied, Tier - Geschichte]
